packages/foundations/assets/icons/functional/images/transportation/bus_12_inverted.svg

<svg width="12" height="12" viewBox="0 0 12 12" fill="none" xmlns="http://www.w3.org/2000/svg">
<g clip-path="url(#clip0_2214_6694)">
<path fill-rule="evenodd" clip-rule="evenodd" d="M8.06162 1.245C8.6263 1.245 8.92034 1.30178 9.22657 1.46555C9.511 1.61767 9.73728 1.84394 9.88939 2.12837C10.0167 2.36651 10.0794 2.59727 10.101 2.95366L10.6799 2.955V5.355L10.1099 5.3544V8.78583C10.1099 9.06656 10.0823 9.24467 10.0055 9.41551C9.92872 9.58636 9.75647 9.80751 9.59995 9.88379V10.755H8.09995V10.065H3.89935L3.89995 10.755H2.39995L2.39903 9.8854C2.24359 9.7873 2.11787 9.6522 2.03036 9.48856C1.93906 9.31785 1.90003 9.15349 1.8917 8.90014C1.88615 8.73123 1.88556 7.54932 1.88995 5.3544L1.31995 5.355V2.955L1.89892 2.95366C1.92049 2.59727 1.98315 2.36651 2.1105 2.12837C2.26262 1.84394 2.48889 1.61767 2.77332 1.46555C3.05403 1.31543 3.3245 1.2552 3.80258 1.24621L8.06162 1.245ZM3.50995 7.90499C3.17858 7.90499 2.90995 8.17362 2.90995 8.505C2.90995 8.83637 3.17858 9.10499 3.50995 9.10499C3.84132 9.10499 4.10995 8.83637 4.10995 8.505C4.10995 8.17362 3.84132 7.90499 3.50995 7.90499ZM8.42608 7.90499C8.0947 7.90499 7.82608 8.17362 7.82608 8.505C7.82608 8.83637 8.0947 9.10499 8.42608 9.10499C8.75745 9.10499 9.02608 8.83637 9.02608 8.505C9.02608 8.17362 8.75745 7.90499 8.42608 7.90499ZM9.08995 3.4044H2.90995L2.91055 6.93414C3.94035 7.08877 4.97015 7.16608 5.99995 7.16608C7.02995 7.16608 8.05995 7.08874 9.08995 6.93405V3.4044ZM7.79995 1.905H4.19995V2.805H7.79995V1.905Z" fill="#1A1C1F"/>
</g>
<defs>
<clipPath id="clip0_2214_6694">
<rect width="12" height="12" fill="white"/>
</clipPath>
</defs>
</svg>

<svg xmlns="http://www.w3.org/2000/svg" width="12" height="12" fill="none"><g clip-path="url(#a)"><path fill="#1A1C1F" fill-rule="evenodd" d="M8.062 1.245c.564 0 .858.057 1.165.22a1.6 1.6 0 0 1 .662.663c.128.239.19.47.212.826l.579.001v2.4h-.57v3.43c0 .282-.028.46-.104.63-.077.171-.25.393-.406.469v.871H8.1v-.69H3.9v.69H2.4l-.001-.87a1.05 1.05 0 0 1-.369-.396c-.09-.171-.13-.336-.138-.589q-.008-.253-.002-3.546l-.57.001v-2.4l.579-.001c.021-.357.084-.587.212-.826a1.6 1.6 0 0 1 .662-.662c.281-.15.551-.21 1.03-.22zM3.51 7.905a.6.6 0 1 0 0 1.2.6.6 0 0 0 0-1.2m4.916 0a.6.6 0 1 0 0 1.2.6.6 0 0 0 0-1.2m.664-4.5H2.91v3.53a20.8 20.8 0 0 0 6.18 0zm-1.29-1.5H4.2v.9h3.6z" clip-rule="evenodd"/></g><defs><clipPath id="a"><path fill="#fff" d="M0 0h12v12H0z"/></clipPath></defs></svg>
